public/images/icon-key--clay.svg

<svg width="16" height="16" viewBox="0 0 16 16" fill="none" xmlns="http://www.w3.org/2000/svg">
<path d="M10.5 11C9.90625 11 9.34375 10.9062 8.8125 10.75L7.78125 11.7812L7.5625 12H6V14H4V16H0V12.4375L0.21875 12.2188L5.25 7.1875C5.09375 6.65625 5 6.09375 5 5.5C5 2.46875 7.46875 0 10.5 0C13.5312 0 16 2.46875 16 5.5C16 8.53125 13.5312 11 10.5 11ZM11.75 3C11.0625 3 10.5 3.5625 10.5 4.25C10.5 4.9375 11.0625 5.5 11.75 5.5C12.4375 5.5 13 4.9375 13 4.25C13 3.5625 12.4375 3 11.75 3Z" fill="#9F7749"/>
</svg>

<svg width="16" height="16" viewBox="0 0 16 16" fill="none" xmlns="http://www.w3.org/2000/svg"><path d="M10.5 11a5.956 5.956 0 0 1-1.688-.25l-1.03 1.031-.22.219H6v2H4v2H0v-3.563l.219-.218L5.25 7.188A5.954 5.954 0 0 1 5 5.5C5 2.469 7.469 0 10.5 0S16 2.469 16 5.5 13.531 11 10.5 11Zm1.25-8c-.688 0-1.25.563-1.25 1.25 0 .688.563 1.25 1.25 1.25.688 0 1.25-.563 1.25-1.25C13 3.562 12.437 3 11.75 3Z" fill="#9F7749"/></svg>
